assets/icons/quiz-essay.svg

<svg width="32" height="32" viewBox="0 0 32 32" fill="none" xmlns="http://www.w3.org/2000/svg">
<rect width="32" height="32" rx="4" fill="#EAE4FF"/>
<path d="M10.6348 11.7637C12.4307 11.7637 14.9037 14.079 16.1836 15.415C16.2298 15.464 16.2781 15.5147 16.3281 15.5664C16.3674 15.6081 16.4069 15.6474 16.4434 15.6865L16.4443 15.6846C16.942 16.1924 17.5415 16.7673 17.7256 16.9502L17.7764 17L17.7734 17.0029C18.0615 17.2912 18.3872 17.606 18.7373 17.918C19.3537 18.4673 20.0215 18.9942 20.6641 19.3779C21.3296 19.7753 21.8559 19.9502 22.2158 19.9502C24.1887 19.9501 25.7878 18.3507 25.7881 16.3779C25.7881 14.4048 24.1889 12.8047 22.2158 12.8047C21.8558 12.8047 21.3297 12.9804 20.6641 13.3779C20.0215 13.7618 19.3538 14.2885 18.7373 14.8379C18.4184 15.1221 18.1191 15.4074 17.8506 15.6738C17.6223 15.451 17.3683 15.2001 17.1426 14.9697C18.4963 13.6262 20.6225 11.8047 22.2158 11.8047L22.4512 11.8115C24.8671 11.9341 26.7881 13.9315 26.7881 16.3779L26.7822 16.6133C26.6594 19.029 24.662 20.9501 22.2158 20.9502L21.9756 20.9375C20.0706 20.7353 17.5344 18.2381 16.4062 17.0273L16.4033 17.0293C16.222 16.8276 16.0022 16.5986 15.7988 16.3955C15.6137 16.2107 15.4286 16.0321 15.2754 15.8906C15.2103 15.8305 15.1408 15.7671 15.0752 15.7109L15.0762 15.71C14.7885 15.4222 14.4627 15.1092 14.1133 14.7979C13.4968 14.2484 12.8291 13.7217 12.1865 13.3379C11.5209 12.9403 10.9948 12.7646 10.6348 12.7646C8.66195 12.7649 7.06271 14.3641 7.0625 16.3369C7.06276 18.3097 8.66198 19.9099 10.6348 19.9102C10.9947 19.9102 11.521 19.7343 12.1865 19.3369C12.8291 18.9531 13.4968 18.4263 14.1133 17.877C14.4375 17.588 14.7407 17.2967 15.0127 17.0264C15.0388 17.0522 15.0665 17.0773 15.0928 17.1035C15.3305 17.3409 15.5502 17.5735 15.7031 17.7461C14.3495 19.0895 12.2267 20.9102 10.6348 20.9102L10.3994 20.9043C7.98372 20.7816 6.06276 18.783 6.0625 16.3369C6.06271 13.8118 8.10966 11.7639 10.6348 11.7637Z" fill="#7C5BFF"/>
</svg>

<svg xmlns="http://www.w3.org/2000/svg" width="32" height="32" fill="none" viewBox="0 0 32 32"><rect width="32" height="32" fill="#EAE4FF" rx="4"/><path fill="#7C5BFF" d="M10.635 11.764c1.796 0 4.269 2.315 5.549 3.651l.144.151.115.12.001-.001c.498.507 1.098 1.082 1.282 1.265l.05.05-.003.003c.288.288.614.603.964.915.617.55 1.285 1.076 1.927 1.46.666.397 1.192.572 1.552.572a3.573 3.573 0 0 0 0-7.145c-.36 0-.886.175-1.552.573-.643.384-1.31.91-1.927 1.46-.319.284-.618.57-.886.836a46.017 46.017 0 0 1-.708-.704c1.353-1.344 3.48-3.165 5.073-3.165l.235.007a4.572 4.572 0 0 1 4.337 4.566l-.006.235a4.573 4.573 0 0 1-4.566 4.337l-.24-.012c-1.905-.203-4.442-2.7-5.57-3.91l-.003.001a19.496 19.496 0 0 0-1.128-1.139 7.455 7.455 0 0 0-.2-.18h.001a23.09 23.09 0 0 0-.963-.912c-.616-.55-1.284-1.076-1.926-1.46-.666-.398-1.192-.573-1.552-.573a3.573 3.573 0 0 0 0 7.145c.36 0 .886-.176 1.552-.573.642-.384 1.31-.91 1.926-1.46.325-.289.628-.58.9-.85l.08.076c.238.238.457.47.61.643-1.353 1.344-3.476 3.164-5.068 3.164l-.236-.006a4.574 4.574 0 0 1 .236-9.14Z"/></svg>
